X:1
T:Ännchen von Tharau
T:Friedrich Silcher
T:Ännchen von Tharau
T:CPDL - Creative Commons Attribution Non Commercial 3.0
T:CPDL - Creative Commons Attribution Non Commercial 3.0
C:Friedrich Silcher
Z:CPDL - Creative Commons Attribution Non Commercial 3.0
%%score [ ( 1 2 ) ( 3 4 ) ]
L:1/8
Q:1/4=120
M:3/4
K:F
V:1 treble-8 nm="Tenor"
V:2 treble-8 
V:3 bass nm="Bass"
V:4 bass 
V:1
"^Mäßig" c3 d c2 | c2 f2 f2 | g3 a g2 | f4 z2 | e2 e2 e2 | g3 f e2 | d3 e d2 | c4 z2 | c3 d c2 | %9
w: 1.~Änn- chen von|Tha- rau ist’s,|die mir ge-|fällt,|sie ist mein|Le- ben, mein|Gut und mein|Geld.|Änn- chen von|
w: 2.~Käm' al- les|Wet- ter gleich|auf uns zu|schlahn,|wir sind ge-|sinnt, bei ein-|an- der zu|stahn.|Krank- heit, Ver-|
w: 3.~Recht als ein|Pal- men- baum|ü- ber sich|steigt,|hat ihn erst|Re- gen und|Sturm- wind ge-|beugt,|so wird die|
w: 4.~Wür- dest du|gleich ein- mal|von mir ge-|trennt,|leb- test da,|wo man die|Son- ne kaum|kennt;|ich will dir|
 c2 f2 f2 | g3 a g2 | f4 z2 | e2 e2 e2 | g3 f e2 | d3 e d2 | c4 z2 | c3 c d2 | e2 c2 d2 | %18
w: Tha- rau hat|wie- der ihr|Herz|auf mich ge-|rich- tet in|Lieb’ und in|Schmerz.|1\-3.~Änn- chen von|Tha- rau, mein|
w: fol- gung, Be-|trüb- nis und|Pein|soll uns- rer|Lie- be Ver-|kno- ti- gung|sein.|4.~Änn- chen von|Tha- rau, mein|
w: Lieb’ in uns|mäch- tig und|groß|nach man- chen|Lei- den und|trau- ri- gem|Los.|||
w: fol- gen durch|Wäl- der und|Meer,|Ei- sen und|Ker- ker und|feind- li- ches|Heer.|||
 e2 e2 f2 | g4 z2 | f2 g2 a2 | b3 a g2 | f2 g2 e2 | f4 z2 |] %24
w: Reich- tum, mein|Gut,|du mei- ne|See- le, mein|Fleisch und mein|Blut.|
w: Licht, mei- ne|Sonn',|mein Le- ben|schließt sich um|dei- nes her-|um.|
w: ||||||
w: ||||||
V:2
 A3 B A2 | A2 c2 c2 | e3 f e2 | c4 x2 | c2 c2 c2 | d3 d c2 | =B3 c B2 | G4 x2 | A3 B A2 | %9
 A2 c2 c2 | e3 f e2 | c4 x2 | c2 c2 c2 | d3 d c2 | =B3 c B2 | G4 x2 | G3 c =B2 | c2 G2 =B2 | %18
 c2 c2 cf | e4 x2 | d2 e2 f2 | d3 d d2 | c2 c2 c2 | c4 x2 |] %24
V:3
 F,3 F, F,2 | F,2 A,2 A,2 | B,3 C B,2 | A,4 z2 | G,2 G,2 G,2 | G,3 G, G,2 | G,3 G, F,2 | E,4 z2 | %8
 F,3 F, F,2 | F,2 A,2 A,2 | B,3 C B,2 | A,4 z2 | G,2 G,2 G,2 | G,3 G, G,2 | G,3 G, F,2 | E,4 z2 | %16
 E,3 E, G,2 | G,2 G,2 G,2 | G,2 G,2 A,2 | B,4 z2 | A,2 G,2 F,2 | G,3 A, B,2 | A,2 B,2 G,2 | %23
 A,4 z2 |] %24
V:4
 F,3 F, F,2 | F,2 F,2 F,2 | C,3 C, C,2 | F,4 x2 | C,2 C,2 C,2 | =B,,3 B,, C,2 | G,,3 G,, G,,2 | %7
 C,4 x2 | F,3 F, F,2 | F,2 F,2 F,2 | C,3 C, C,2 | F,4 x2 | C,2 C,2 C,2 | =B,,3 B,, C,2 | %14
 G,,3 G,, G,,2 | C,4 x2 | C,3 C, G,,2 | C,2 E,2 G,2 | C,2 C,2 C,2 | C,4 x2 | D,2 D,2 D,2 | %21
 B,,3 B,, B,,2 | C,2 C,2 C,2 | F,4 x2 |] %24

